X: 124
T: Grandfather's pet
C: anon.
O: Ireland
B: Francis O'Neill: "The Dance Music of Ireland" (1907) no. 124
R: Double jig
Z: Transcribed by Frank Nordberg - http://www.musicaviva.com
F: http://www.musicaviva.com/abc/tunes/ireland/oneill-1001/oneill-1001-012
4.abc
M: 6/8
L: 1/8
K: D
e|dBA ABA|dBA ABA|d2e ({g}f2)d|e2d B2e|dBA ABA|dBA ABA|d2 f ({g}a2)g|fge
d2:|
|:e|fgf ({g}f)ed|e2 d ({a}g2)e|fgf ({g}f)ed|ecA A2e|fgf fed|e2f g2g|agf (
{a}g)ec|d3 d2:|
W:
W:
W: From Musica Viva - http://www.musicaviva.com
W: the Internet center for free sheet music downloads.


